X:1
T:Va pensiero (Chorus of Hebrew Slaves)
C:Giuseppe Verdi
O:Nabucco (1842)
M:4/4
L:1/4
Q:1/4=80
K:F
% Va pensiero, sull'ali dorate
c3 B | A G F2 | G A B c | d2 c2 |
% va, ti posa sui clivi, sui colli
c3 B | A G F E | F G A B | c4 |
% ove olezzano tepide e molli
A B c d | c2 B2 | F4 |]
